X: 30051
M: 2/4
L: 1/8
K: G
|: B |\
edcB | c2cd |\
edcB | cB AG | dGFE | D2DD |\
EFGE | AFD2 | d3c | B3A | G3 :|


